app/bin/resource/pic/edit_table_properties.svg

<?xml version="1.0" encoding="UTF-8" standalone="no"?>
<!-- Created with Inkscape (http://www.inkscape.org/) -->

<svg
   xmlns:dc="http://purl.org/dc/elements/1.1/"
   xmlns:cc="http://creativecommons.org/ns#"
   xmlns:rdf="http://www.w3.org/1999/02/22-rdf-syntax-ns#"
   xmlns:svg="http://www.w3.org/2000/svg"
   xmlns="http://www.w3.org/2000/svg"
   xmlns:sodipodi="http://sodipodi.sourceforge.net/DTD/sodipodi-0.dtd"
   xmlns:inkscape="http://www.inkscape.org/namespaces/inkscape"
   width="16px"
   height="16px"
   id="svg2385"
   sodipodi:version="0.32"
   inkscape:version="0.91 r13725"
   sodipodi:docname="edit_table_properties.svg"
   inkscape:output_extension="org.inkscape.output.svg.inkscape"
   version="1.1">
  <defs
     id="defs2387">
    <inkscape:perspective
       sodipodi:type="inkscape:persp3d"
       inkscape:vp_x="0 : 8 : 1"
       inkscape:vp_y="0 : 1000 : 0"
       inkscape:vp_z="16 : 8 : 1"
       inkscape:persp3d-origin="8 : 5.3333333 : 1"
       id="perspective2393" />
  </defs>
  <sodipodi:namedview
     id="base"
     pagecolor="#ffffff"
     bordercolor="#666666"
     borderopacity="1.0"
     inkscape:pageopacity="0.0"
     inkscape:pageshadow="2"
     inkscape:zoom="52.697948"
     inkscape:cx="4.7259514"
     inkscape:cy="8.0601511"
     inkscape:current-layer="layer1"
     showgrid="true"
     inkscape:grid-bbox="true"
     inkscape:document-units="px"
     gridtolerance="17"
     guidetolerance="3"
     inkscape:window-width="1920"
     inkscape:window-height="1144"
     inkscape:window-x="-4"
     inkscape:window-y="-4"
     inkscape:snap-bbox="true"
     inkscape:object-paths="true"
     inkscape:object-nodes="false"
     inkscape:snap-nodes="true"
     objecttolerance="26"
     inkscape:bbox-paths="true"
     inkscape:bbox-nodes="true"
     inkscape:snap-global="true"
     inkscape:snap-others="false"
     inkscape:snap-page="false"
     inkscape:window-maximized="1">
    <inkscape:grid
       type="xygrid"
       id="grid3169"
       visible="true"
       enabled="true" />
  </sodipodi:namedview>
  <metadata
     id="metadata2390">
    <rdf:RDF>
      <cc:Work
         rdf:about="">
        <dc:format>image/svg+xml</dc:format>
        <dc:type
           rdf:resource="http://purl.org/dc/dcmitype/StillImage" />
        <dc:title></dc:title>
      </cc:Work>
    </rdf:RDF>
  </metadata>
  <g
     id="layer1"
     inkscape:label="Layer 1"
     inkscape:groupmode="layer">
    <path
       style="fill:none;fill-rule:evenodd;stroke:#000000;stroke-width:0.5;stroke-linecap:butt;stroke-linejoin:miter;stroke-opacity:1;stroke-miterlimit:4;stroke-dasharray:none"
       d="M 24,5.429626 C nan,nan nan,nan 24,15"
       id="path3219"
       sodipodi:nodetypes="cc" />
    <g
       id="g2387"
       transform="translate(1,0.9999999)">
      <rect
         y="1.1920929e-07"
         x="0"
         height="14"
         width="14"
         id="rect3188"
         style="fill:#000000;fill-opacity:1;fill-rule:nonzero;stroke:none;stroke-width:0.5;stroke-linejoin:miter;stroke-miterlimit:4;stroke-dasharray:none;stroke-dashoffset:0;stroke-opacity:1" />
      <rect
         y="0.50000012"
         x="0.5"
         height="13"
         width="13"
         id="rect3190"
         style="fill:#87aade;fill-opacity:1;fill-rule:nonzero;stroke:none;stroke-width:0.5;stroke-linejoin:miter;stroke-miterlimit:4;stroke-dasharray:none;stroke-dashoffset:0;stroke-opacity:1" />
      <path
         id="path3176"
         d="M 0.2409091,9.2500001 L 13.490909,9.2500001"
         style="fill:none;fill-rule:evenodd;stroke:#000000;stroke-width:0.5;stroke-linecap:butt;stroke-linejoin:miter;stroke-miterlimit:4;stroke-dasharray:none;stroke-opacity:1" />
      <path
         id="path3174"
         d="M 4.75,0.48941044 L 4.75,13.498698"
         style="fill:none;fill-rule:evenodd;stroke:#000000;stroke-width:0.5;stroke-linecap:butt;stroke-linejoin:miter;stroke-miterlimit:4;stroke-dasharray:none;stroke-opacity:1" />
      <path
         id="path3178"
         d="M 0.24545512,4.7500033 L 13.490825,4.7500033"
         style="fill:none;fill-rule:evenodd;stroke:#000000;stroke-width:0.5;stroke-linecap:butt;stroke-linejoin:miter;stroke-miterlimit:4;stroke-dasharray:none;stroke-opacity:1" />
      <path
         id="path2430"
         d="M 9.25,0.50000012 L 9.25,13.509291"
         style="fill:none;fill-rule:evenodd;stroke:#000000;stroke-width:0.5;stroke-linecap:butt;stroke-linejoin:miter;stroke-miterlimit:4;stroke-dasharray:none;stroke-opacity:1" />
    </g>
    <g
       id="g6273"
       transform="matrix(0.70710678,1.0051504,-0.70710678,1.0051504,10.77014,-10.6692)"
       style="fill:#ffffff">
      <path
         inkscape:connector-curvature="0"
         sodipodi:nodetypes="cccccc"
         id="path3212"
         d="M 6.3417365,13.768253 9.1352205,13.209557 14.722189,7.6225886 12.487401,5.3878014 6.9004333,10.974769 6.3417365,13.768253 Z"
         style="fill:#ffffff;fill-opacity:1;fill-rule:evenodd;stroke:#000000;stroke-width:0.41936961;stroke-linecap:butt;stroke-linejoin:miter;stroke-miterlimit:4;stroke-dasharray:none;stroke-opacity:1" />
      <path
         inkscape:connector-curvature="0"
         sodipodi:nodetypes="ccccc"
         id="rect3214"
         d="M 9.2752384,13.069539 C 8.7342172,12.069726 8.0080245,11.301378 7.0404523,10.834753 L 12.487402,5.3878031 14.722188,7.6225892 9.2752384,13.069539 Z"
         style="fill:#ffffff;fill-opacity:1;fill-rule:nonzero;stroke:#000000;stroke-width:0.41936961;stroke-miterlimit:4;stroke-dashoffset:0;stroke-opacity:1" />
      <path
         inkscape:connector-curvature="0"
         sodipodi:nodetypes="cccc"
         id="path3228"
         d="m 6.3853847,13.724605 1.267892,-0.227046 C 7.4145973,13.060386 7.0901872,12.694655 6.6124307,12.456713 l -0.227046,1.267892 z"
         style="fill:#ffffff;fill-opacity:1;fill-rule:evenodd;stroke:#000000;stroke-width:0.20968482;stroke-linecap:butt;stroke-linejoin:miter;stroke-miterlimit:4;stroke-dasharray:none;stroke-opacity:1" />
      <path
         inkscape:connector-curvature="0"
         sodipodi:nodetypes="cc"
         id="path3217"
         d="M 8.2578009,11.532037 13.450357,6.3507558"
         style="fill:#ffffff;stroke:#000000;stroke-width:0.20968482;stroke-linecap:butt;stroke-linejoin:miter;stroke-miterlimit:4;stroke-dasharray:none;stroke-opacity:1" />
      <path
         inkscape:connector-curvature="0"
         sodipodi:nodetypes="cc"
         id="path3238"
         d="M 8.9021153,12.325268 14.22905,6.9983332"
         style="fill:#ffffff;stroke:#000000;stroke-width:0.20968482;stroke-linecap:butt;stroke-linejoin:miter;stroke-miterlimit:4;stroke-dasharray:none;stroke-opacity:1" />
    </g>
  </g>
</svg>

<svg xmlns="http://www.w3.org/2000/svg" width="16" height="16"><path style="fill:#000;fill-opacity:1;fill-rule:nonzero;stroke:none;stroke-width:.5;stroke-linejoin:miter;stroke-miterlimit:4;stroke-dasharray:none;stroke-dashoffset:0;stroke-opacity:1" d="M0 0h14v14H0z" transform="translate(1 1)"/><path style="fill:#87aade;fill-opacity:1;fill-rule:nonzero;stroke:none;stroke-width:.5;stroke-linejoin:miter;stroke-miterlimit:4;stroke-dasharray:none;stroke-dashoffset:0;stroke-opacity:1" d="M.5.5h13v13H.5z" transform="translate(1 1)"/><path d="M.24 9.25h13.25M4.75.49v13.009M.245 4.75h13.246M9.25.5v13.01" style="fill:none;fill-rule:evenodd;stroke:#000;stroke-width:.5;stroke-linecap:butt;stroke-linejoin:miter;stroke-miterlimit:4;stroke-dasharray:none;stroke-opacity:1" transform="translate(1 1)"/><g style="fill:#fff"><path d="m6.342 13.768 2.793-.558 5.587-5.587-2.235-2.235L6.9 10.975l-.558 2.793Z" style="fill:#fff;fill-opacity:1;fill-rule:evenodd;stroke:#000;stroke-width:.41936961;stroke-linecap:butt;stroke-linejoin:miter;stroke-miterlimit:4;stroke-dasharray:none;stroke-opacity:1" transform="scale(1 1.4215) rotate(45 14.445 9.248)"/><path d="M9.275 13.07c-.54-1-1.267-1.769-2.235-2.235l5.447-5.447 2.235 2.235-5.447 5.447Z" style="fill:#fff;fill-opacity:1;fill-rule:nonzero;stroke:#000;stroke-width:.41936961;stroke-miterlimit:4;stroke-dashoffset:0;stroke-opacity:1" transform="scale(1 1.4215) rotate(45 14.445 9.248)"/><path d="m6.385 13.725 1.268-.227c-.238-.438-.563-.803-1.04-1.041l-.228 1.268z" style="fill:#fff;fill-opacity:1;fill-rule:evenodd;stroke:#000;stroke-width:.20968482;stroke-linecap:butt;stroke-linejoin:miter;stroke-miterlimit:4;stroke-dasharray:none;stroke-opacity:1" transform="scale(1 1.4215) rotate(45 14.445 9.248)"/><path d="m8.258 11.532 5.192-5.181M8.902 12.325l5.327-5.327" style="fill:#fff;stroke:#000;stroke-width:.20968482;stroke-linecap:butt;stroke-linejoin:miter;stroke-miterlimit:4;stroke-dasharray:none;stroke-opacity:1" transform="scale(1 1.4215) rotate(45 14.445 9.248)"/></g></svg>
